X: 1806
T:Paddy Cronin's
N:IrTrad, 6/99
M:4/4
L:1/8
S:Christy Dunne: "Pluckin Good"
R:R
K:D
d2fd Adfd|(3ddd fa gecA|d2fd Adfd|eA (3Bcd egfe:|(3aaa ab afdf|a2af gede
|(3aaa ab afdf|eA (3Bcd egfe|(3aaa ab afdf|a2af gede|afge fdec|A2 (3Bcd
egfe||d4
